Numix-GalliumOS/22/mimetypes/application-executable.svg

<?xml version="1.0" encoding="UTF-8" standalone="no"?>
<svg
   xmlns:dc="http://purl.org/dc/elements/1.1/"
   xmlns:cc="http://creativecommons.org/ns#"
   xmlns:rdf="http://www.w3.org/1999/02/22-rdf-syntax-ns#"
   xmlns:svg="http://www.w3.org/2000/svg"
   xmlns="http://www.w3.org/2000/svg"
   xmlns:sodipodi="http://sodipodi.sourceforge.net/DTD/sodipodi-0.dtd"
   xmlns:inkscape="http://www.inkscape.org/namespaces/inkscape"
   width="22"
   height="22"
   viewBox="0 0 22 22"
   id="svg2"
   version="1.1"
   inkscape:version="0.48.5 r10040"
   sodipodi:docname="application-executable.svg">
  <metadata
     id="metadata14">
    <rdf:RDF>
      <cc:Work
         rdf:about="">
        <dc:format>image/svg+xml</dc:format>
        <dc:type
           rdf:resource="http://purl.org/dc/dcmitype/StillImage" />
      </cc:Work>
    </rdf:RDF>
  </metadata>
  <defs
     id="defs12" />
  <sodipodi:namedview
     pagecolor="#ffffff"
     bordercolor="#666666"
     borderopacity="1"
     objecttolerance="10"
     gridtolerance="10"
     guidetolerance="10"
     inkscape:pageopacity="0"
     inkscape:pageshadow="2"
     inkscape:window-width="1280"
     inkscape:window-height="970"
     id="namedview10"
     showgrid="true"
     inkscape:zoom="30.341309"
     inkscape:cx="12.304701"
     inkscape:cy="9.0698051"
     inkscape:window-x="0"
     inkscape:window-y="0"
     inkscape:window-maximized="1"
     inkscape:current-layer="svg2">
    <inkscape:grid
       type="xygrid"
       id="grid2991" />
  </sodipodi:namedview>
  <path
     style="fill:#eeeeee"
     d="M 3.9128785,3 C 3.4583331,3 3,3.4583331 3,3.9128785 L 3,18.109848 C 3,18.541667 3.4583331,19 3.8901518,19 L 18.109848,19 C 18.541667,19 19,18.541667 19,18.109848 L 19,3.8901518 C 19,3.4583331 18.541667,3 18.109848,3 z"
     id="path4"
     inkscape:connector-curvature="0" />
  <path
     style="fill:#888"
     d="M 10.691406 5.550781 C 9.773438 5.84375 10.578125 7.210938 9.261719 7.878906 C 7.761719 8.644531 7.015625 6.714844 6.113281 8.09375 C 5.210938 9.472656 7.355469 9.257812 7.296875 10.878906 C 7.234375 12.503906 5.109375 12.160156 5.90625 13.589844 C 6.707031 15.023438 7.589844 13.144531 9.03125 14 C 10.476562 14.859375 9.097656 16.445312 10.796875 16.5 C 12.496094 16.550781 11.234375 14.886719 12.738281 14.121094 C 14.238281 13.355469 14.984375 15.285156 15.886719 13.90625 C 16.789062 12.527344 14.644531 12.742188 14.703125 11.121094 C 14.765625 9.496094 16.890625 9.839844 16.09375 8.410156 C 15.292969 6.976562 14.410156 8.855469 12.96875 8 C 11.523438 7.140625 12.902344 5.554688 11.203125 5.5 C 10.992188 5.496094 10.820312 5.507812 10.691406 5.550781 Z M 10.707031 9.679688 C 11.464844 9.527344 12.210938 9.992188 12.371094 10.71875 C 12.535156 11.449219 12.050781 12.164062 11.292969 12.320312 C 10.535156 12.472656 9.789062 12.007812 9.628906 11.28125 C 9.464844 10.550781 9.949219 9.835938 10.707031 9.679688 Z "
     id="path6" />
  <path
     style="fill:#aaaaaa"
     d="M 4.1098482,3 C 3.8143942,3 3.5492422,3.1439399 3.3484848,3.3484848 3.1439399,3.5492422 3,3.8143942 3,4.1098482 L 3,17.916666 c 0,0.28788 0.1363636,0.553031 0.3333333,0.750001 C 3.530303,18.863636 3.7954541,19 4.0833338,19 l 13.8333322,0 c 0.28788,0 0.553031,-0.136364 0.750001,-0.333333 C 18.863636,18.469697 19,18.204546 19,17.916666 L 19,4.0833338 C 19,3.7954541 18.863636,3.530303 18.666667,3.3333333 18.469697,3.1363636 18.204546,3 17.916666,3 z M 4,4 18,4 18,18 4,18 z"
     id="path8"
     inkscape:connector-curvature="0"
     sodipodi:nodetypes="scsssssssssssccccc" />
</svg>

<svg xmlns="http://www.w3.org/2000/svg" viewBox="0 0 22 22">
 <path d="m 3.913 3 c -0.455 0 -0.913 0.458 -0.913 0.913 l 0 14.197 c 0 0.432 0.458 0.89 0.89 0.89 l 14.22 0 c 0.432 0 0.89 -0.458 0.89 -0.89 l 0 -14.22 c 0 -0.432 -0.458 -0.89 -0.89 -0.89 z" style="fill:#eee"/>
 <path d="m 10.691 5.551 c -0.918 0.293 -0.113 1.66 -1.43 2.328 c -1.5 0.766 -2.246 -1.164 -3.148 0.215 c -0.902 1.379 1.242 1.164 1.184 2.785 c -0.063 1.625 -2.188 1.281 -1.391 2.711 c 0.801 1.434 1.684 -0.445 3.125 0.41 c 1.445 0.859 0.066 2.445 1.766 2.5 c 1.699 0.051 0.438 -1.613 1.941 -2.379 c 1.5 -0.766 2.246 1.164 3.148 -0.215 c 0.902 -1.379 -1.242 -1.164 -1.184 -2.785 c 0.063 -1.625 2.188 -1.281 1.391 -2.711 c -0.801 -1.434 -1.684 0.445 -3.125 -0.41 c -1.445 -0.859 -0.066 -2.445 -1.766 -2.5 c -0.211 -0.004 -0.383 0.008 -0.512 0.051 m 0.016 4.129 c 0.758 -0.152 1.504 0.313 1.664 1.039 c 0.164 0.73 -0.32 1.445 -1.078 1.602 c -0.758 0.152 -1.504 -0.313 -1.664 -1.039 c -0.164 -0.73 0.32 -1.445 1.078 -1.602 Z" style="fill:#888"/>
 <path d="m 4.11 3 c -0.295 0 -0.561 0.144 -0.761 0.348 -0.205 0.201 -0.348 0.466 -0.348 0.761 l 0 13.807 c 0 0.288 0.136 0.553 0.333 0.75 c 0.197 0.197 0.462 0.333 0.75 0.333 l 13.833 0 c 0.288 0 0.553 -0.136 0.75 -0.333 c 0.197 -0.197 0.333 -0.462 0.333 -0.75 l 0 -13.833 c 0 -0.288 -0.136 -0.553 -0.333 -0.75 -0.197 -0.197 -0.462 -0.333 -0.75 -0.333 z m -0.11 1 14 0 0 14 -14 0 z" style="fill:#aaa"/>
</svg>
